X: 37705
T: Soft Horse
R: reel
M: 4/4
K: Dmajor
|:{a}gf|1 {g}eB{gBeBG}B2 {g}ef{a}gf|{g}e=c{gcecA}c2 {g}ef{a}ge|{g}fd{gdedG}d2 {g}fd{gdedG}d2|{g}fa{g}af af{g}dB|
[2,3 {g}eB{gBeBG}B2 {g}ef{a}gf|{g}e=c{gcecA}c2 {g}ef{a}ge|{g}fd{e}dc {gdedG}d2cd|{g}ceag {g}fd{g}=cA ]|
[4 {g}eB{gBeBG}B2 {g}eB{gBeBG}B2|{g}e=c{gcecA}c2 {g}e^c{gcecG}c2|{g}ed{gdedG}d2 {g}fd{gdedG}d2|{g}ceag {g}fd{g}=cA ]|
{g}G{d}GdG {g}BA{g}GB|{GAG}Aa{g}ag agef|{a}gd{gdedG}d2 {g}ef{a}ge|{g}dB{g}AB {g}G{d}G:|
|:{g}BA|{g}Gd{gdedG}d2 {g}BA{g}GB|{GAG}Aa{g}ag agef|{a}gd{gdedG}d2 {g}ef{a}ge|{g}dB{gBeBG}B2 A=cBA|
{g}Gd{gdedG}d2 {g}BA{g}GB|{GAG}Aa{g}ag agef|{a}gd{gdedG}d2 {g}ef{a}ge|{g}dB{g}AB {g}G{d}G:|

